src/actions/24/kstars_deepsky.svg

<svg xmlns="http://www.w3.org/2000/svg" viewBox="0 0 24 24">
    <path d="M3 3v8h8V3H3zm13.5 0A2.5 2.5 0 0 0 14 5.5 2.5 2.5 0 0 0 16.5 8 2.5 2.5 0 0 0 19 5.5 2.5 2.5 0 0 0 16.5 3zM4 4h6v6H4V4zm12.5 0A1.5 1.5 0 0 1 18 5.5 1.5 1.5 0 0 1 16.5 7 1.5 1.5 0 0 1 15 5.5 1.5 1.5 0 0 1 16.5 4zM13 11a6 4 0 0 0-6 4 6 4 0 0 0 6 4 6 4 0 0 0 6-4 6 4 0 0 0-6-4zm0 1a5 3 0 0 1 5 3 5 3 0 0 1-5 3 5 3 0 0 1-5-3 5 3 0 0 1 5-3z" style="fill:currentColor;fill-opacity:1;stroke:none;color:#050505;opacity:.7" transform="translate(1 1)"/>
</svg>

<svg xmlns="http://www.w3.org/2000/svg" viewBox="0 0 24 24">
  <defs id="defs3051">
    <style type="text/css" id="current-color-scheme">
      .ColorScheme-Text {
        color:#363636;
      }
      </style>
  </defs><g transform="translate(1,1)">
 <path 
     style="fill:currentColor;fill-opacity:1;stroke:none" 
     d="M 3 3 L 3 11 L 11 11 L 11 3 L 3 3 z M 16.5 3 A 2.5 2.5 0 0 0 14 5.5 A 2.5 2.5 0 0 0 16.5 8 A 2.5 2.5 0 0 0 19 5.5 A 2.5 2.5 0 0 0 16.5 3 z M 4 4 L 10 4 L 10 10 L 4 10 L 4 4 z M 16.5 4 A 1.5 1.5 0 0 1 18 5.5 A 1.5 1.5 0 0 1 16.5 7 A 1.5 1.5 0 0 1 15 5.5 A 1.5 1.5 0 0 1 16.5 4 z M 13 11 A 6 4 0 0 0 7 15 A 6 4 0 0 0 13 19 A 6 4 0 0 0 19 15 A 6 4 0 0 0 13 11 z M 13 12 A 5 3 0 0 1 18 15 A 5 3 0 0 1 13 18 A 5 3 0 0 1 8 15 A 5 3 0 0 1 13 12 z "
	 class="ColorScheme-Text"
     />
</g></svg>
